www/assets/icons/donut_small.svg

<svg xmlns="http://www.w3.org/2000/svg" width="24" height="24" viewBox="0 0 24 24" fill='currentColor'><path d="M11 9.16V2c-5 .5-9 4.79-9 10s4 9.5 9 10v-7.16c-1-.41-2-1.52-2-2.84s1-2.43 2-2.84M14.86 11H22c-.48-4.75-4-8.53-9-9v7.16c1 .3 1.52.98 1.86 1.84M13 14.84V22c5-.47 8.52-4.25 9-9h-7.14c-.34.86-.86 1.54-1.86 1.84"/></svg>

<svg width="24" height="24" viewBox="0 0 24 24" xmlns="http://www.w3.org/2000/svg" fill='currentColor'><path d="M11 9.16V2C6 2.5 2 6.79 2 12C2 17.21 6 21.5 11 22V14.84C10 14.43 9 13.32 9 12C9 10.68 10 9.57 11 9.16ZM14.86 11H22C21.52 6.25 18 2.47 13 2V9.16C14 9.46 14.52 10.14 14.86 11ZM13 14.84V22C18 21.53 21.52 17.75 22 13H14.86C14.52 13.86 14 14.54 13 14.84Z"/></svg>
